assets/img/icon_responsive.svg

<svg width="84" height="84" viewBox="0 0 84 84" fill="none" xmlns="http://www.w3.org/2000/svg">
<path d="M45.9375 73.5H44.3835C44.539 73.0797 44.6206 72.6356 44.625 72.1875V48.5625C44.625 47.5182 44.2102 46.5167 43.4717 45.7783C42.7333 45.0398 41.7318 44.625 40.6875 44.625H9.1875C8.14321 44.625 7.14169 45.0398 6.40327 45.7783C5.66484 46.5167 5.25 47.5182 5.25 48.5625V72.1875C5.25435 72.6356 5.33605 73.0797 5.4915 73.5H3.9375C3.5894 73.5 3.25556 73.6383 3.00942 73.8844C2.76328 74.1306 2.625 74.4644 2.625 74.8125V77.4375C2.625 78.4818 3.03984 79.4833 3.77827 80.2217C4.51669 80.9602 5.51821 81.375 6.5625 81.375H43.3125C44.3568 81.375 45.3583 80.9602 46.0967 80.2217C46.8352 79.4833 47.25 78.4818 47.25 77.4375V74.8125C47.25 74.4644 47.1117 74.1306 46.8656 73.8844C46.6194 73.6383 46.2856 73.5 45.9375 73.5ZM7.875 72.1875V48.5625C7.875 48.2144 8.01328 47.8806 8.25942 47.6344C8.50556 47.3883 8.8394 47.25 9.1875 47.25H40.6875C41.0356 47.25 41.3694 47.3883 41.6156 47.6344C41.8617 47.8806 42 48.2144 42 48.5625V72.1875C42 72.5356 41.8617 72.8694 41.6156 73.1156C41.3694 73.3617 41.0356 73.5 40.6875 73.5H9.1875C8.8394 73.5 8.50556 73.3617 8.25942 73.1156C8.01328 72.8694 7.875 72.5356 7.875 72.1875ZM44.625 77.4375C44.625 77.7856 44.4867 78.1194 44.2406 78.3656C43.9944 78.6117 43.6606 78.75 43.3125 78.75H6.5625C6.2144 78.75 5.88056 78.6117 5.63442 78.3656C5.38828 78.1194 5.25 77.7856 5.25 77.4375V76.125H44.625V77.4375Z" fill="url(#paint0_linear)"/>
<path d="M40.6875 49.875C40.6875 49.5269 40.5492 49.1931 40.3031 48.9469C40.0569 48.7008 39.7231 48.5625 39.375 48.5625H10.5C10.1519 48.5625 9.81806 48.7008 9.57192 48.9469C9.32578 49.1931 9.1875 49.5269 9.1875 49.875V70.875C9.1875 71.2231 9.32578 71.5569 9.57192 71.8031C9.81806 72.0492 10.1519 72.1875 10.5 72.1875H39.375C39.7231 72.1875 40.0569 72.0492 40.3031 71.8031C40.5492 71.5569 40.6875 71.2231 40.6875 70.875V49.875ZM38.0625 69.5625H11.8125V51.1875H38.0625V69.5625Z" fill="url(#paint1_linear)"/>
<path d="M77.4375 44.625H61.6875C60.6432 44.625 59.6417 45.0398 58.9033 45.7783C58.1648 46.5167 57.75 47.5182 57.75 48.5625V77.4375C57.75 78.4818 58.1648 79.4833 58.9033 80.2217C59.6417 80.9602 60.6432 81.375 61.6875 81.375H77.4375C78.4818 81.375 79.4833 80.9602 80.2217 80.2217C80.9602 79.4833 81.375 78.4818 81.375 77.4375V48.5625C81.375 47.5182 80.9602 46.5167 80.2217 45.7783C79.4833 45.0398 78.4818 44.625 77.4375 44.625V44.625ZM60.375 55.125H78.75V70.875H60.375V55.125ZM61.6875 47.25H77.4375C77.7856 47.25 78.1194 47.3883 78.3656 47.6344C78.6117 47.8806 78.75 48.2144 78.75 48.5625V52.5H60.375V48.5625C60.375 48.2144 60.5133 47.8806 60.7594 47.6344C61.0056 47.3883 61.3394 47.25 61.6875 47.25ZM77.4375 78.75H61.6875C61.3394 78.75 61.0056 78.6117 60.7594 78.3656C60.5133 78.1194 60.375 77.7856 60.375 77.4375V73.5H78.75V77.4375C78.75 77.7856 78.6117 78.1194 78.3656 78.3656C78.1194 78.6117 77.7856 78.75 77.4375 78.75Z" fill="url(#paint2_linear)"/>
<path d="M70.875 74.8125H68.25C67.9019 74.8125 67.5681 74.9508 67.3219 75.1969C67.0758 75.4431 66.9375 75.7769 66.9375 76.125C66.9375 76.4731 67.0758 76.8069 67.3219 77.0531C67.5681 77.2992 67.9019 77.4375 68.25 77.4375H70.875C71.2231 77.4375 71.5569 77.2992 71.8031 77.0531C72.0492 76.8069 72.1875 76.4731 72.1875 76.125C72.1875 75.7769 72.0492 75.4431 71.8031 75.1969C71.5569 74.9508 71.2231 74.8125 70.875 74.8125Z" fill="url(#paint3_linear)"/>
<path d="M68.25 51.1875H70.875C71.2231 51.1875 71.5569 51.0492 71.8031 50.8031C72.0492 50.5569 72.1875 50.2231 72.1875 49.875C72.1875 49.5269 72.0492 49.1931 71.8031 48.9469C71.5569 48.7008 71.2231 48.5625 70.875 48.5625H68.25C67.9019 48.5625 67.5681 48.7008 67.3219 48.9469C67.0758 49.1931 66.9375 49.5269 66.9375 49.875C66.9375 50.2231 67.0758 50.5569 67.3219 50.8031C67.5681 51.0492 67.9019 51.1875 68.25 51.1875Z" fill="url(#paint4_linear)"/>
<path d="M22.3125 42H61.6875C62.7318 42 63.7333 41.5852 64.4717 40.8467C65.2102 40.1083 65.625 39.1068 65.625 38.0625V6.5625C65.625 5.51821 65.2102 4.51669 64.4717 3.77827C63.7333 3.03984 62.7318 2.625 61.6875 2.625H22.3125C21.2682 2.625 20.2667 3.03984 19.5283 3.77827C18.7898 4.51669 18.375 5.51821 18.375 6.5625V38.0625C18.375 39.1068 18.7898 40.1083 19.5283 40.8467C20.2667 41.5852 21.2682 42 22.3125 42ZM63 38.0625C63 38.4106 62.8617 38.7444 62.6156 38.9906C62.3694 39.2367 62.0356 39.375 61.6875 39.375H22.3125C21.9644 39.375 21.6306 39.2367 21.3844 38.9906C21.1383 38.7444 21 38.4106 21 38.0625V13.125H63V38.0625ZM21 6.5625C21 6.2144 21.1383 5.88056 21.3844 5.63442C21.6306 5.38828 21.9644 5.25 22.3125 5.25H61.6875C62.0356 5.25 62.3694 5.38828 62.6156 5.63442C62.8617 5.88056 63 6.2144 63 6.5625V10.5H21V6.5625Z" fill="url(#paint5_linear)"/>
<path d="M23.625 6.5625H26.25V9.1875H23.625V6.5625Z" fill="url(#paint6_linear)"/>
<path d="M28.875 6.5625H31.5V9.1875H28.875V6.5625Z" fill="url(#paint7_linear)"/>
<path d="M34.125 6.5625H36.75V9.1875H34.125V6.5625Z" fill="url(#paint8_linear)"/>
<path d="M24.9375 22.3125H59.0625C59.4106 22.3125 59.7444 22.1742 59.9906 21.9281C60.2367 21.6819 60.375 21.3481 60.375 21V15.75C60.375 15.4019 60.2367 15.0681 59.9906 14.8219C59.7444 14.5758 59.4106 14.4375 59.0625 14.4375H24.9375C24.5894 14.4375 24.2556 14.5758 24.0094 14.8219C23.7633 15.0681 23.625 15.4019 23.625 15.75V21C23.625 21.3481 23.7633 21.6819 24.0094 21.9281C24.2556 22.1742 24.5894 22.3125 24.9375 22.3125ZM26.25 17.0625H57.75V19.6875H26.25V17.0625Z" fill="url(#paint9_linear)"/>
<path d="M24.9375 38.0625H34.125C34.4731 38.0625 34.8069 37.9242 35.0531 37.6781C35.2992 37.4319 35.4375 37.0981 35.4375 36.75V24.9375C35.4375 24.5894 35.2992 24.2556 35.0531 24.0094C34.8069 23.7633 34.4731 23.625 34.125 23.625H24.9375C24.5894 23.625 24.2556 23.7633 24.0094 24.0094C23.7633 24.2556 23.625 24.5894 23.625 24.9375V36.75C23.625 37.0981 23.7633 37.4319 24.0094 37.6781C24.2556 37.9242 24.5894 38.0625 24.9375 38.0625ZM26.25 26.25H32.8125V35.4375H26.25V26.25Z" fill="url(#paint10_linear)"/>
<path d="M59.0625 23.625H39.375C39.0269 23.625 38.6931 23.7633 38.4469 24.0094C38.2008 24.2556 38.0625 24.5894 38.0625 24.9375V36.75C38.0625 37.0981 38.2008 37.4319 38.4469 37.6781C38.6931 37.9242 39.0269 38.0625 39.375 38.0625H59.0625C59.4106 38.0625 59.7444 37.9242 59.9906 37.6781C60.2367 37.4319 60.375 37.0981 60.375 36.75V24.9375C60.375 24.5894 60.2367 24.2556 59.9906 24.0094C59.7444 23.7633 59.4106 23.625 59.0625 23.625ZM57.75 35.4375H40.6875V26.25H57.75V35.4375Z" fill="url(#paint11_linear)"/>
<path d="M15.75 68.25H21C21.3481 68.25 21.6819 68.1117 21.9281 67.8656C22.1742 67.6194 22.3125 67.2856 22.3125 66.9375V53.8125C22.3125 53.4644 22.1742 53.1306 21.9281 52.8844C21.6819 52.6383 21.3481 52.5 21 52.5H15.75C15.4019 52.5 15.0681 52.6383 14.8219 52.8844C14.5758 53.1306 14.4375 53.4644 14.4375 53.8125V66.9375C14.4375 67.2856 14.5758 67.6194 14.8219 67.8656C15.0681 68.1117 15.4019 68.25 15.75 68.25ZM17.0625 55.125H19.6875V65.625H17.0625V55.125Z" fill="url(#paint12_linear)"/>
<path d="M26.25 68.25H34.125C34.4731 68.25 34.8069 68.1117 35.0531 67.8656C35.2992 67.6194 35.4375 67.2856 35.4375 66.9375V53.8125C35.4375 53.4644 35.2992 53.1306 35.0531 52.8844C34.8069 52.6383 34.4731 52.5 34.125 52.5H26.25C25.9019 52.5 25.5681 52.6383 25.3219 52.8844C25.0758 53.1306 24.9375 53.4644 24.9375 53.8125V66.9375C24.9375 67.2856 25.0758 67.6194 25.3219 67.8656C25.5681 68.1117 25.9019 68.25 26.25 68.25ZM32.8125 65.625H27.5625V61.6875H32.8125V65.625ZM27.5625 55.125H32.8125V59.0625H27.5625V55.125Z" fill="url(#paint13_linear)"/>
<path d="M74.8125 56.4375H64.3125C63.9644 56.4375 63.6306 56.5758 63.3844 56.8219C63.1383 57.0681 63 57.4019 63 57.75V68.25C63 68.5981 63.1383 68.9319 63.3844 69.1781C63.6306 69.4242 63.9644 69.5625 64.3125 69.5625H74.8125C75.1606 69.5625 75.4944 69.4242 75.7406 69.1781C75.9867 68.9319 76.125 68.5981 76.125 68.25V57.75C76.125 57.4019 75.9867 57.0681 75.7406 56.8219C75.4944 56.5758 75.1606 56.4375 74.8125 56.4375ZM65.625 59.0625H73.5V61.6875H65.625V59.0625ZM73.5 66.9375H65.625V64.3125H73.5V66.9375Z" fill="url(#paint14_linear)"/>
<path d="M73.5 23.625H76.125V26.25H73.5V23.625Z" fill="url(#paint15_linear)"/>
<path d="M73.5 28.875H76.125V31.5H73.5V28.875Z" fill="url(#paint16_linear)"/>
<path d="M73.5 34.125H76.125V36.75H73.5V34.125Z" fill="url(#paint17_linear)"/>
<path d="M73.5 39.375H76.125V42H73.5V39.375Z" fill="url(#paint18_linear)"/>
<path d="M68.25 23.625H70.875V26.25H68.25V23.625Z" fill="url(#paint19_linear)"/>
<path d="M47.25 59.0625H49.875V61.6875H47.25V59.0625Z" fill="url(#paint20_linear)"/>
<path d="M52.5 59.0625H55.125V61.6875H52.5V59.0625Z" fill="url(#paint21_linear)"/>
<path d="M7.875 23.625H10.5V26.25H7.875V23.625Z" fill="url(#paint22_linear)"/>
<path d="M7.875 28.875H10.5V31.5H7.875V28.875Z" fill="url(#paint23_linear)"/>
<path d="M7.875 34.125H10.5V36.75H7.875V34.125Z" fill="url(#paint24_linear)"/>
<path d="M7.875 39.375H10.5V42H7.875V39.375Z" fill="url(#paint25_linear)"/>
<path d="M13.125 23.625H15.75V26.25H13.125V23.625Z" fill="url(#paint26_linear)"/>
<defs>
<linearGradient id="paint0_linear" x1="1.84406" y1="63" x2="47.25" y2="63" gradientUnits="userSpaceOnUse">
<stop stop-color="#3494E6"/>
<stop offset="1" stop-color="#EC6EAD"/>
</linearGradient>
<linearGradient id="paint1_linear" x1="8.63625" y1="60.375" x2="40.6875" y2="60.375" gradientUnits="userSpaceOnUse">
<stop stop-color="#3494E6"/>
<stop offset="1" stop-color="#EC6EAD"/>
</linearGradient>
<linearGradient id="paint2_linear" x1="57.3366" y1="63" x2="81.375" y2="63" gradientUnits="userSpaceOnUse">
<stop stop-color="#3494E6"/>
<stop offset="1" stop-color="#EC6EAD"/>
</linearGradient>
<linearGradient id="paint3_linear" x1="66.8456" y1="76.125" x2="72.1875" y2="76.125" gradientUnits="userSpaceOnUse">
<stop stop-color="#3494E6"/>
<stop offset="1" stop-color="#EC6EAD"/>
</linearGradient>
<linearGradient id="paint4_linear" x1="66.8456" y1="49.875" x2="72.1875" y2="49.875" gradientUnits="userSpaceOnUse">
<stop stop-color="#3494E6"/>
<stop offset="1" stop-color="#EC6EAD"/>
</linearGradient>
<linearGradient id="paint5_linear" x1="17.5481" y1="22.3125" x2="65.625" y2="22.3125" gradientUnits="userSpaceOnUse">
<stop stop-color="#3494E6"/>
<stop offset="1" stop-color="#EC6EAD"/>
</linearGradient>
<linearGradient id="paint6_linear" x1="23.5791" y1="7.875" x2="26.25" y2="7.875" gradientUnits="userSpaceOnUse">
<stop stop-color="#3494E6"/>
<stop offset="1" stop-color="#EC6EAD"/>
</linearGradient>
<linearGradient id="paint7_linear" x1="28.8291" y1="7.875" x2="31.5" y2="7.875" gradientUnits="userSpaceOnUse">
<stop stop-color="#3494E6"/>
<stop offset="1" stop-color="#EC6EAD"/>
</linearGradient>
<linearGradient id="paint8_linear" x1="34.0791" y1="7.875" x2="36.75" y2="7.875" gradientUnits="userSpaceOnUse">
<stop stop-color="#3494E6"/>
<stop offset="1" stop-color="#EC6EAD"/>
</linearGradient>
<linearGradient id="paint9_linear" x1="22.9819" y1="18.375" x2="60.375" y2="18.375" gradientUnits="userSpaceOnUse">
<stop stop-color="#3494E6"/>
<stop offset="1" stop-color="#EC6EAD"/>
</linearGradient>
<linearGradient id="paint10_linear" x1="23.4183" y1="30.8437" x2="35.4375" y2="30.8437" gradientUnits="userSpaceOnUse">
<stop stop-color="#3494E6"/>
<stop offset="1" stop-color="#EC6EAD"/>
</linearGradient>
<linearGradient id="paint11_linear" x1="37.672" y1="30.8437" x2="60.375" y2="30.8437" gradientUnits="userSpaceOnUse">
<stop stop-color="#3494E6"/>
<stop offset="1" stop-color="#EC6EAD"/>
</linearGradient>
<linearGradient id="paint12_linear" x1="14.2997" y1="60.375" x2="22.3125" y2="60.375" gradientUnits="userSpaceOnUse">
<stop stop-color="#3494E6"/>
<stop offset="1" stop-color="#EC6EAD"/>
</linearGradient>
<linearGradient id="paint13_linear" x1="24.7537" y1="60.375" x2="35.4375" y2="60.375" gradientUnits="userSpaceOnUse">
<stop stop-color="#3494E6"/>
<stop offset="1" stop-color="#EC6EAD"/>
</linearGradient>
<linearGradient id="paint14_linear" x1="62.7703" y1="63" x2="76.125" y2="63" gradientUnits="userSpaceOnUse">
<stop stop-color="#3494E6"/>
<stop offset="1" stop-color="#EC6EAD"/>
</linearGradient>
<linearGradient id="paint15_linear" x1="73.4541" y1="24.9375" x2="76.125" y2="24.9375" gradientUnits="userSpaceOnUse">
<stop stop-color="#3494E6"/>
<stop offset="1" stop-color="#EC6EAD"/>
</linearGradient>
<linearGradient id="paint16_linear" x1="73.4541" y1="30.1875" x2="76.125" y2="30.1875" gradientUnits="userSpaceOnUse">
<stop stop-color="#3494E6"/>
<stop offset="1" stop-color="#EC6EAD"/>
</linearGradient>
<linearGradient id="paint17_linear" x1="73.4541" y1="35.4375" x2="76.125" y2="35.4375" gradientUnits="userSpaceOnUse">
<stop stop-color="#3494E6"/>
<stop offset="1" stop-color="#EC6EAD"/>
</linearGradient>
<linearGradient id="paint18_linear" x1="73.4541" y1="40.6875" x2="76.125" y2="40.6875" gradientUnits="userSpaceOnUse">
<stop stop-color="#3494E6"/>
<stop offset="1" stop-color="#EC6EAD"/>
</linearGradient>
<linearGradient id="paint19_linear" x1="68.2041" y1="24.9375" x2="70.875" y2="24.9375" gradientUnits="userSpaceOnUse">
<stop stop-color="#3494E6"/>
<stop offset="1" stop-color="#EC6EAD"/>
</linearGradient>
<linearGradient id="paint20_linear" x1="47.2041" y1="60.375" x2="49.875" y2="60.375" gradientUnits="userSpaceOnUse">
<stop stop-color="#3494E6"/>
<stop offset="1" stop-color="#EC6EAD"/>
</linearGradient>
<linearGradient id="paint21_linear" x1="52.4541" y1="60.375" x2="55.125" y2="60.375" gradientUnits="userSpaceOnUse">
<stop stop-color="#3494E6"/>
<stop offset="1" stop-color="#EC6EAD"/>
</linearGradient>
<linearGradient id="paint22_linear" x1="7.82906" y1="24.9375" x2="10.5" y2="24.9375" gradientUnits="userSpaceOnUse">
<stop stop-color="#3494E6"/>
<stop offset="1" stop-color="#EC6EAD"/>
</linearGradient>
<linearGradient id="paint23_linear" x1="7.82906" y1="30.1875" x2="10.5" y2="30.1875" gradientUnits="userSpaceOnUse">
<stop stop-color="#3494E6"/>
<stop offset="1" stop-color="#EC6EAD"/>
</linearGradient>
<linearGradient id="paint24_linear" x1="7.82906" y1="35.4375" x2="10.5" y2="35.4375" gradientUnits="userSpaceOnUse">
<stop stop-color="#3494E6"/>
<stop offset="1" stop-color="#EC6EAD"/>
</linearGradient>
<linearGradient id="paint25_linear" x1="7.82906" y1="40.6875" x2="10.5" y2="40.6875" gradientUnits="userSpaceOnUse">
<stop stop-color="#3494E6"/>
<stop offset="1" stop-color="#EC6EAD"/>
</linearGradient>
<linearGradient id="paint26_linear" x1="13.0791" y1="24.9375" x2="15.75" y2="24.9375" gradientUnits="userSpaceOnUse">
<stop stop-color="#3494E6"/>
<stop offset="1" stop-color="#EC6EAD"/>
</linearGradient>
</defs>
</svg>

<svg width="84" height="84" fill="none" xmlns="http://www.w3.org/2000/svg"><path d="M45.938 73.5h-1.555c.156-.42.238-.864.242-1.313V48.564a3.937 3.937 0 00-3.938-3.938h-31.5a3.937 3.937 0 00-3.937 3.938v23.624c.004.449.086.893.242 1.313H3.938a1.313 1.313 0 00-1.313 1.313v2.624a3.937 3.937 0 003.938 3.938h36.75a3.937 3.937 0 003.937-3.938v-2.624a1.313 1.313 0 00-1.313-1.313zM7.874 72.187V48.564a1.313 1.313 0 011.313-1.313h31.5A1.313 1.313 0 0142 48.563v23.624a1.313 1.313 0 01-1.313 1.313h-31.5a1.313 1.313 0 01-1.312-1.313zm36.75 5.25a1.313 1.313 0 01-1.313 1.313H6.563a1.313 1.313 0 01-1.312-1.313v-1.312h39.375v1.313z" fill="url(#paint0_linear)"/><path d="M40.688 49.875a1.313 1.313 0 00-1.313-1.313H10.5a1.313 1.313 0 00-1.313 1.313v21a1.313 1.313 0 001.313 1.313h28.875a1.313 1.313 0 001.313-1.313v-21zm-2.626 19.688h-26.25V51.186h26.25v18.376z" fill="url(#paint1_linear)"/><path d="M77.438 44.625h-15.75a3.937 3.937 0 00-3.938 3.938v28.874a3.937 3.937 0 003.938 3.938h15.75a3.937 3.937 0 003.937-3.938V48.564a3.937 3.937 0 00-3.938-3.938zm-17.063 10.5H78.75v15.75H60.375v-15.75zm1.313-7.875h15.75a1.313 1.313 0 011.312 1.313V52.5H60.375v-3.938a1.313 1.313 0 011.313-1.312zm15.75 31.5h-15.75a1.313 1.313 0 01-1.313-1.313V73.5H78.75v3.938a1.313 1.313 0 01-1.313 1.312z" fill="url(#paint2_linear)"/><path d="M70.875 74.813H68.25a1.313 1.313 0 000 2.624h2.625a1.313 1.313 0 000-2.624z" fill="url(#paint3_linear)"/><path d="M68.25 51.188h2.625a1.313 1.313 0 000-2.626H68.25a1.313 1.313 0 000 2.626z" fill="url(#paint4_linear)"/><path d="M22.313 42h39.374a3.937 3.937 0 003.938-3.938v-31.5a3.937 3.937 0 00-3.938-3.937H22.313a3.937 3.937 0 00-3.938 3.938v31.5A3.937 3.937 0 0022.313 42zM63 38.062a1.313 1.313 0 01-1.313 1.313H22.313A1.313 1.313 0 0121 38.062V13.125h42v24.938zm-42-31.5a1.313 1.313 0 011.313-1.312h39.374A1.313 1.313 0 0163 6.563V10.5H21V6.562z" fill="url(#paint5_linear)"/><path d="M23.625 6.563h2.625v2.625h-2.625V6.562z" fill="url(#paint6_linear)"/><path d="M28.875 6.563H31.5v2.625h-2.625V6.562z" fill="url(#paint7_linear)"/><path d="M34.125 6.563h2.625v2.625h-2.625V6.562z" fill="url(#paint8_linear)"/><path d="M24.938 22.313h34.124A1.313 1.313 0 0060.376 21v-5.25a1.313 1.313 0 00-1.313-1.313H24.938a1.313 1.313 0 00-1.313 1.313V21a1.313 1.313 0 001.313 1.313zm1.312-5.25h31.5v2.625h-31.5v-2.625z" fill="url(#paint9_linear)"/><path d="M24.938 38.063h9.187a1.313 1.313 0 001.313-1.313V24.937a1.313 1.313 0 00-1.313-1.312h-9.188a1.313 1.313 0 00-1.312 1.313V36.75a1.313 1.313 0 001.313 1.313zM26.25 26.25h6.563v9.188H26.25V26.25z" fill="url(#paint10_linear)"/><path d="M59.063 23.625H39.374a1.313 1.313 0 00-1.313 1.313V36.75a1.313 1.313 0 001.313 1.313h19.688a1.313 1.313 0 001.312-1.313V24.937a1.313 1.313 0 00-1.313-1.312zM57.75 35.438H40.687V26.25H57.75v9.188z" fill="url(#paint11_linear)"/><path d="M15.75 68.25H21a1.313 1.313 0 001.313-1.313V53.813A1.313 1.313 0 0021 52.5h-5.25a1.313 1.313 0 00-1.313 1.313v13.124a1.313 1.313 0 001.313 1.313zm1.313-13.125h2.625v10.5h-2.625v-10.5z" fill="url(#paint12_linear)"/><path d="M26.25 68.25h7.875a1.313 1.313 0 001.313-1.313V53.813a1.313 1.313 0 00-1.313-1.313H26.25a1.313 1.313 0 00-1.313 1.313v13.124a1.313 1.313 0 001.313 1.313zm6.563-2.625h-5.25v-3.938h5.25v3.938zm-5.25-10.5h5.25v3.938h-5.25v-3.938z" fill="url(#paint13_linear)"/><path d="M74.813 56.438h-10.5A1.313 1.313 0 0063 57.75v10.5a1.313 1.313 0 001.313 1.313h10.5a1.313 1.313 0 001.312-1.313v-10.5a1.313 1.313 0 00-1.313-1.313zm-9.188 2.624H73.5v2.626h-7.875v-2.626zm7.875 7.876h-7.875v-2.626H73.5v2.626z" fill="url(#paint14_linear)"/><path d="M73.5 23.625h2.625v2.625H73.5v-2.625z" fill="url(#paint15_linear)"/><path d="M73.5 28.875h2.625V31.5H73.5v-2.625z" fill="url(#paint16_linear)"/><path d="M73.5 34.125h2.625v2.625H73.5v-2.625z" fill="url(#paint17_linear)"/><path d="M73.5 39.375h2.625V42H73.5v-2.625z" fill="url(#paint18_linear)"/><path d="M68.25 23.625h2.625v2.625H68.25v-2.625z" fill="url(#paint19_linear)"/><path d="M47.25 59.063h2.625v2.624H47.25v-2.624z" fill="url(#paint20_linear)"/><path d="M52.5 59.063h2.625v2.624H52.5v-2.624z" fill="url(#paint21_linear)"/><path d="M7.875 23.625H10.5v2.625H7.875v-2.625z" fill="url(#paint22_linear)"/><path d="M7.875 28.875H10.5V31.5H7.875v-2.625z" fill="url(#paint23_linear)"/><path d="M7.875 34.125H10.5v2.625H7.875v-2.625z" fill="url(#paint24_linear)"/><path d="M7.875 39.375H10.5V42H7.875v-2.625z" fill="url(#paint25_linear)"/><path d="M13.125 23.625h2.625v2.625h-2.625v-2.625z" fill="url(#paint26_linear)"/><defs><linearGradient id="paint0_linear" x1="1.844" y1="63" x2="47.25" y2="63" gradientUnits="userSpaceOnUse"><stop stop-color="#3494E6"/><stop offset="1" stop-color="#EC6EAD"/></linearGradient><linearGradient id="paint1_linear" x1="8.636" y1="60.375" x2="40.688" y2="60.375" gradientUnits="userSpaceOnUse"><stop stop-color="#3494E6"/><stop offset="1" stop-color="#EC6EAD"/></linearGradient><linearGradient id="paint2_linear" x1="57.337" y1="63" x2="81.375" y2="63" gradientUnits="userSpaceOnUse"><stop stop-color="#3494E6"/><stop offset="1" stop-color="#EC6EAD"/></linearGradient><linearGradient id="paint3_linear" x1="66.846" y1="76.125" x2="72.188" y2="76.125" gradientUnits="userSpaceOnUse"><stop stop-color="#3494E6"/><stop offset="1" stop-color="#EC6EAD"/></linearGradient><linearGradient id="paint4_linear" x1="66.846" y1="49.875" x2="72.188" y2="49.875" gradientUnits="userSpaceOnUse"><stop stop-color="#3494E6"/><stop offset="1" stop-color="#EC6EAD"/></linearGradient><linearGradient id="paint5_linear" x1="17.548" y1="22.313" x2="65.625" y2="22.313" gradientUnits="userSpaceOnUse"><stop stop-color="#3494E6"/><stop offset="1" stop-color="#EC6EAD"/></linearGradient><linearGradient id="paint6_linear" x1="23.579" y1="7.875" x2="26.25" y2="7.875" gradientUnits="userSpaceOnUse"><stop stop-color="#3494E6"/><stop offset="1" stop-color="#EC6EAD"/></linearGradient><linearGradient id="paint7_linear" x1="28.829" y1="7.875" x2="31.5" y2="7.875" gradientUnits="userSpaceOnUse"><stop stop-color="#3494E6"/><stop offset="1" stop-color="#EC6EAD"/></linearGradient><linearGradient id="paint8_linear" x1="34.079" y1="7.875" x2="36.75" y2="7.875" gradientUnits="userSpaceOnUse"><stop stop-color="#3494E6"/><stop offset="1" stop-color="#EC6EAD"/></linearGradient><linearGradient id="paint9_linear" x1="22.982" y1="18.375" x2="60.375" y2="18.375" gradientUnits="userSpaceOnUse"><stop stop-color="#3494E6"/><stop offset="1" stop-color="#EC6EAD"/></linearGradient><linearGradient id="paint10_linear" x1="23.418" y1="30.844" x2="35.438" y2="30.844" gradientUnits="userSpaceOnUse"><stop stop-color="#3494E6"/><stop offset="1" stop-color="#EC6EAD"/></linearGradient><linearGradient id="paint11_linear" x1="37.672" y1="30.844" x2="60.375" y2="30.844" gradientUnits="userSpaceOnUse"><stop stop-color="#3494E6"/><stop offset="1" stop-color="#EC6EAD"/></linearGradient><linearGradient id="paint12_linear" x1="14.3" y1="60.375" x2="22.313" y2="60.375" gradientUnits="userSpaceOnUse"><stop stop-color="#3494E6"/><stop offset="1" stop-color="#EC6EAD"/></linearGradient><linearGradient id="paint13_linear" x1="24.754" y1="60.375" x2="35.438" y2="60.375" gradientUnits="userSpaceOnUse"><stop stop-color="#3494E6"/><stop offset="1" stop-color="#EC6EAD"/></linearGradient><linearGradient id="paint14_linear" x1="62.77" y1="63" x2="76.125" y2="63" gradientUnits="userSpaceOnUse"><stop stop-color="#3494E6"/><stop offset="1" stop-color="#EC6EAD"/></linearGradient><linearGradient id="paint15_linear" x1="73.454" y1="24.938" x2="76.125" y2="24.938" gradientUnits="userSpaceOnUse"><stop stop-color="#3494E6"/><stop offset="1" stop-color="#EC6EAD"/></linearGradient><linearGradient id="paint16_linear" x1="73.454" y1="30.188" x2="76.125" y2="30.188" gradientUnits="userSpaceOnUse"><stop stop-color="#3494E6"/><stop offset="1" stop-color="#EC6EAD"/></linearGradient><linearGradient id="paint17_linear" x1="73.454" y1="35.438" x2="76.125" y2="35.438" gradientUnits="userSpaceOnUse"><stop stop-color="#3494E6"/><stop offset="1" stop-color="#EC6EAD"/></linearGradient><linearGradient id="paint18_linear" x1="73.454" y1="40.688" x2="76.125" y2="40.688" gradientUnits="userSpaceOnUse"><stop stop-color="#3494E6"/><stop offset="1" stop-color="#EC6EAD"/></linearGradient><linearGradient id="paint19_linear" x1="68.204" y1="24.938" x2="70.875" y2="24.938" gradientUnits="userSpaceOnUse"><stop stop-color="#3494E6"/><stop offset="1" stop-color="#EC6EAD"/></linearGradient><linearGradient id="paint20_linear" x1="47.204" y1="60.375" x2="49.875" y2="60.375" gradientUnits="userSpaceOnUse"><stop stop-color="#3494E6"/><stop offset="1" stop-color="#EC6EAD"/></linearGradient><linearGradient id="paint21_linear" x1="52.454" y1="60.375" x2="55.125" y2="60.375" gradientUnits="userSpaceOnUse"><stop stop-color="#3494E6"/><stop offset="1" stop-color="#EC6EAD"/></linearGradient><linearGradient id="paint22_linear" x1="7.829" y1="24.938" x2="10.5" y2="24.938" gradientUnits="userSpaceOnUse"><stop stop-color="#3494E6"/><stop offset="1" stop-color="#EC6EAD"/></linearGradient><linearGradient id="paint23_linear" x1="7.829" y1="30.188" x2="10.5" y2="30.188" gradientUnits="userSpaceOnUse"><stop stop-color="#3494E6"/><stop offset="1" stop-color="#EC6EAD"/></linearGradient><linearGradient id="paint24_linear" x1="7.829" y1="35.438" x2="10.5" y2="35.438" gradientUnits="userSpaceOnUse"><stop stop-color="#3494E6"/><stop offset="1" stop-color="#EC6EAD"/></linearGradient><linearGradient id="paint25_linear" x1="7.829" y1="40.688" x2="10.5" y2="40.688" gradientUnits="userSpaceOnUse"><stop stop-color="#3494E6"/><stop offset="1" stop-color="#EC6EAD"/></linearGradient><linearGradient id="paint26_linear" x1="13.079" y1="24.938" x2="15.75" y2="24.938" gradientUnits="userSpaceOnUse"><stop stop-color="#3494E6"/><stop offset="1" stop-color="#EC6EAD"/></linearGradient></defs></svg>
